src/images/Checkmark.svg

<?xml version="1.0" encoding="UTF-8" standalone="no"?>
<svg
   xmlns:dc="http://purl.org/dc/elements/1.1/"
   xmlns:cc="http://creativecommons.org/ns#"
   xmlns:rdf="http://www.w3.org/1999/02/22-rdf-syntax-ns#"
   xmlns:svg="http://www.w3.org/2000/svg"
   xmlns="http://www.w3.org/2000/svg"
   xmlns:sodipodi="http://sodipodi.sourceforge.net/DTD/sodipodi-0.dtd"
   xmlns:inkscape="http://www.inkscape.org/namespaces/inkscape"
   version="1.1"
   id="Layer_1"
   x="0px"
   y="0px"
   width="755"
   height="607"
   viewBox="0 0 755.0000000000006 606.999999999999"
   enable-background="new 0 0 578 462"
   xml:space="preserve"
   inkscape:version="0.91 r13725"
   sodipodi:docname="Checkmark.svg"><metadata
     id="metadata8"><rdf:RDF><cc:Work
         rdf:about=""><dc:format>image/svg+xml</dc:format><dc:type
           rdf:resource="http://purl.org/dc/dcmitype/StillImage" /><dc:date>2016</dc:date><dc:creator><cc:Agent><dc:title>Lazur</dc:title></cc:Agent></dc:creator><dc:description>Original raster images of this series were uploaded by NicholasJudy456 to openclipart embedded in svg-s (416 in total).  This is one of the refixes upon request by the original author.</dc:description><dc:contributor><cc:Agent><dc:title /></cc:Agent></dc:contributor><dc:title></dc:title></cc:Work></rdf:RDF></metadata><defs
     id="defs6" /><sodipodi:namedview
     pagecolor="#ffffff"
     bordercolor="#666666"
     borderopacity="1"
     objecttolerance="10"
     gridtolerance="10"
     guidetolerance="10"
     inkscape:pageopacity="0"
     inkscape:pageshadow="2"
     inkscape:window-width="1366"
     inkscape:window-height="705"
     id="namedview4"
     showgrid="false"
     borderlayer="true"
     inkscape:showpageshadow="false"
     inkscape:zoom="0.914332784184514"
     inkscape:cx="377.5000000000001"
     inkscape:cy="303.5"
     inkscape:window-x="-8"
     inkscape:window-y="-8"
     inkscape:window-maximized="1"
     inkscape:current-layer="Layer_1"
     fit-margin-top="0"
     fit-margin-left="0"
     fit-margin-right="0"
     fit-margin-bottom="0"
     showguides="true"
     inkscape:guide-bbox="true"
     showborder="true" /><path
     inkscape:connector-curvature="0"
     id="path3368"
     d="m 225.3801993123471,585.25 -26.7694797455667,-35.25 -43.8896525235758,-50.3230445277813 -50.2210670432046,-40.0882581530303 -56.74999999999993,-35.9962453546368 -24.75000000000004,-12.9970072272631 15.50000000000006,-74.5954447372885 15.5,-77.1647346197068 1.50999789340672,-2.8352653802932 20.24999999999995,9.4236293220665 18.74000210659325,9.4236293220665 29.11074879661699,29.3263706779335 29.1107487966171,29.3263706779335 13.214567068002,21.25 13.9345384565016,21.25 97.4572144055204,-102 121.1721824767419,-114.4814784644757 89,-69.95668711536742 114.973409270599,-79.36892397440396 57.0706610685825,71.30708955424688 64.6108902742039,81.83779648198262 8.8135726182045,12 -62.25,36.092656967498 -62.2185332315898,34.9304534494805 -65.5,45.9578639313265 -164.2334506486918,127.8561582488706 -44.7334506486919,40.3250709208418 -37.601038908247,42.5 -52.7665493513082,63.2255371869551 -16.1749636542898,20.75 z"
     style="fill:#21b04b"
     sodipodi:nodetypes="ccccccccccccccccccccccccccccccc" /></svg>

<svg xmlns="http://www.w3.org/2000/svg" width="755" height="607" xml:space="preserve"><path d="M225.38 585.25 198.61 550l-43.889-50.323-50.221-40.088-56.75-35.997L23 410.595 38.5 336 54 258.835 55.51 256l20.25 9.424 18.74 9.423 29.11 29.327 29.111 29.326 13.215 21.25L179.871 376l97.457-102L398.5 159.519l89-69.957 114.973-79.37L659.544 81.5l64.611 81.838 8.814 12-62.25 36.092-62.219 34.93L543 292.32 378.767 420.175 334.033 460.5l-37.6 42.5-52.767 63.226-16.175 20.75z" style="fill:#21b04b"/></svg>
